img/omisego-white.svg

<?xml version="1.0" encoding="UTF-8"?>
<svg width="110px" height="40px" viewBox="0 0 110 40" version="1.1" xmlns="http://www.w3.org/2000/svg" xmlns:xlink="http://www.w3.org/1999/xlink">
    <!-- Generator: Sketch 47.1 (45422) - http://www.bohemiancoding.com/sketch -->
    <title>OmiseGO_White</title>
    <desc>Created with Sketch.</desc>
    <defs></defs>
    <g id="Assets" stroke="none" stroke-width="1" fill="none" fill-rule="evenodd">
        <g id="OmiseGO_White" fill-rule="nonzero" fill="#FFFFFF">
            <g id="OmiseGO-White">
                <g id="Group">
                    <path d="M7.70987179,22.1692308 C3.35217949,22.1692308 0.0211538462,19.4291026 0.0211538462,14.5115385 C0.0211538462,9.59397436 3.50730769,6.75512821 7.8974359,6.75512821 C12.2875641,6.75512821 15.5551282,9.55730769 15.5551282,14.4128205 C15.5551282,19.2683333 12.0365385,22.1692308 7.70987179,22.1692308 Z M7.77192308,10.4020513 C5.77923077,10.4020513 4.78358974,11.99 4.78358974,14.4805128 C4.78358974,16.9710256 5.81025641,18.4955128 7.80294872,18.4955128 C9.79564103,18.4955128 10.7912821,16.9442308 10.7912821,14.4494872 C10.7912821,11.9871795 9.76320513,10.4034615 7.77051282,10.4034615 L7.77192308,10.4020513 Z" id="Shape"></path>
                    <path d="M35.4764103,13.1732051 C35.4764103,11.4301282 34.7289744,10.8392308 33.5147436,10.8392308 C32.5501282,10.8392308 31.7716667,11.275 31.1807692,11.7728205 L31.1807692,21.7024359 L26.3858974,21.7024359 L26.3858974,13.1732051 C26.3858974,11.4301282 25.6074359,10.8392308 24.3932051,10.8392308 C23.5365098,10.8384174 22.7080987,11.1457554 22.0592308,11.7051282 L22.0592308,21.6967949 L17.264359,21.6967949 L17.264359,7.05128205 L22.0592308,7.04282051 L22.0592308,8.90576923 C23.3355128,7.5674359 24.7669231,6.75794872 26.6665385,6.75794872 C28.4998718,6.75794872 30.0285897,7.62948718 30.745,9.34153846 C32.0833333,7.75358974 33.764359,6.75794872 35.7570513,6.75794872 C38.5902564,6.75794872 40.2698718,8.65615385 40.2698718,11.77 L40.2698718,21.6996154 L35.475,21.6996154 L35.4764103,13.1732051 Z" id="Shape"></path>
                    <path d="M45.094359,5.17282051 C43.3512821,5.17282051 42.2625641,4.27025641 42.2625641,2.62025641 C42.2625641,0.908205128 43.3512821,0.0366666667 45.094359,0.0366666667 C46.8684615,0.0366666667 47.9275641,0.908205128 47.9275641,2.62025641 C47.9275641,4.27025641 46.8684615,5.17282051 45.094359,5.17282051 Z M42.6969231,7.05551282 L47.4917949,7.04705128 L47.4917949,21.7024359 L42.6969231,21.7024359 L42.6969231,7.05551282 Z" id="Shape"></path>
                    <path d="M55.2341026,22.1692308 C53.2414103,22.1692308 50.6267949,21.7334615 49.1023077,20.8929487 L50.0358974,17.4378205 C51.7479487,18.309359 53.6165385,18.8071795 55.3271795,18.8071795 C56.6344872,18.8071795 57.2888462,18.4024359 57.2888462,17.6239744 C57.2888462,16.7778205 56.479359,16.5028205 54.829359,16.1305128 C51.4673077,15.4451282 49.3194872,14.2323077 49.3194872,11.3991026 C49.3194872,8.69141026 51.6844872,6.76076923 55.7008974,6.76076923 C57.6301282,6.76076923 60.1516667,7.32487179 61.5844872,8.00602564 L60.6198718,11.4230769 C58.9698718,10.5769231 57.0082051,10.1157692 55.6388462,10.1157692 C54.455641,10.1157692 53.8647436,10.4894872 53.8647436,11.2058974 C53.8647436,11.984359 54.7673077,12.2960256 56.3552564,12.6373077 C59.7483333,13.3847436 61.8030769,14.5044872 61.8030769,17.3997436 C61.8016667,20.025641 59.4987179,22.1692308 55.2341026,22.1692308 Z" id="Shape"></path>
                    <path d="M71.2024359,18.6520513 C72.7903846,18.6520513 74.4714103,18.0879487 75.9338462,17.2516667 L76.400641,20.9564103 C74.9382051,21.7038462 72.8834615,22.1396154 70.7596154,22.1396154 C65.8730769,22.1396154 62.6661538,19.4319231 62.6661538,14.575 C62.6661538,9.84358974 65.9097436,6.76217949 70.51,6.76217949 C74.6194872,6.76217949 76.8561538,9.22166667 76.8561538,12.8262821 C76.8561538,13.6047436 76.7630769,14.7555128 76.5444872,15.3788462 L67.3608974,15.5339744 L67.3608974,15.5960256 C67.5301282,17.5619231 68.8374359,18.6520513 71.2024359,18.6520513 Z M72.4166667,12.8333333 C72.4166667,11.0902564 71.7002564,10.0621795 70.2067949,10.0621795 C68.5567949,10.0621795 67.5611538,11.4935897 67.4046154,13.1435897 L72.4166667,13.1153846 L72.4166667,12.8333333 Z" id="Shape"></path>
                </g>
                <g id="Group" transform="translate(77.987179, 6.628205)" opacity="0.65">
                    <path d="M7.81564103,16.5789744 C3.55759641,16.5789744 0.105769231,20.0308015 0.105769231,24.2888462 C0.105769231,28.5468908 3.55759641,31.9987179 7.81564103,31.9987179 C12.0736856,31.9987179 15.5255128,28.5468908 15.5255128,24.2888462 C15.5255128,20.0308015 12.0736856,16.5789744 7.81564103,16.5789744 Z M7.81564103,29.6661538 C4.84583599,29.6661538 2.43833333,27.2586512 2.43833333,24.2888462 C2.43833333,21.3190411 4.84583599,18.9115385 7.81564103,18.9115385 C10.7854461,18.9115385 13.1929487,21.3190411 13.1929487,24.2888462 C13.189841,27.2575914 10.7843853,29.6636779 7.81564103,29.6675641 L7.81564103,29.6661538 Z" id="Shape"></path>
                    <path d="M24.2832051,0.132564103 C21.1648531,0.132564103 18.353554,2.01101406 17.1602124,4.8919957 C15.9668707,7.77297733 16.6264946,11.0891306 18.8315025,13.2941385 C21.0365104,15.4991464 24.3526637,16.1587703 27.2336453,14.9654286 C30.114627,13.772087 31.9930769,10.960788 31.9930769,7.8424359 C31.9930769,3.58439128 28.5412497,0.132564103 24.2832051,0.132564103 L24.2832051,0.132564103 Z M24.2832051,13.2197436 C21.3134001,13.2197436 18.9058974,10.8122409 18.9058974,7.8424359 C18.9058974,4.87263086 21.3134001,2.46512821 24.2832051,2.46512821 C27.2530102,2.46512821 29.6605128,4.87263086 29.6605128,7.8424359 C29.6566283,10.8106304 27.2513996,13.215859 24.2832051,13.2197436 L24.2832051,13.2197436 Z" id="Shape"></path>
                    <path d="M7.81564103,0.132564103 L7.81564103,0.132564103 C4.14463804,0.131162773 0.981179634,2.71694653 0.252213383,6.31484495 C-0.476752868,9.91274338 1.43073569,13.5259461 4.81277648,14.9535543 C8.19481727,16.3811624 12.1144041,15.2276521 14.1840112,12.1956574 C16.2536182,9.16366283 15.8998537,5.09320863 13.3382051,2.46371795 L15.5255128,2.46371795 L15.5255128,0.132564103 L7.81564103,0.132564103 Z M13.194359,7.8424359 C13.1935802,10.8120572 10.7857327,13.2188524 7.81611136,13.2183333 C4.84648997,13.2178141 2.43948426,10.8101771 2.4397438,7.84055568 C2.44000333,4.87093426 4.84742985,2.46371805 7.81705128,2.46371795 C10.7857956,2.46760415 13.1912513,4.87369067 13.194359,7.8424359 L13.194359,7.8424359 Z" id="Shape"></path>
                </g>
            </g>
        </g>
    </g>
</svg>

<svg width="110" height="40" viewBox="0 0 110 40" xmlns="http://www.w3.org/2000/svg"><g fill="#FFF"><path d="M7.71 22.17c-4.358 0-7.69-2.74-7.69-7.659s3.486-7.757 7.876-7.757c4.39 0 7.658 2.802 7.658 7.658 0 4.855-3.518 7.756-7.845 7.756zm.062-11.768c-1.993 0-2.988 1.588-2.988 4.079 0 2.49 1.026 4.015 3.019 4.015s2.988-1.552 2.988-4.047c0-2.462-1.028-4.046-3.02-4.046zm27.704 2.771c0-1.743-.747-2.334-1.961-2.334-.965 0-1.743.436-2.334.934v9.93h-4.795v-8.53c0-1.743-.779-2.334-1.993-2.334a3.57 3.57 0 00-2.334.866v9.992h-4.795V7.05l4.795-.008v1.863c1.277-1.339 2.708-2.148 4.608-2.148 1.833 0 3.362.871 4.078 2.584 1.338-1.588 3.02-2.584 5.012-2.584 2.833 0 4.513 1.898 4.513 5.012v9.93h-4.795l.001-8.527zm9.618-8c-1.743 0-2.831-.903-2.831-2.553 0-1.712 1.088-2.583 2.831-2.583 1.774 0 2.834.871 2.834 2.583 0 1.65-1.06 2.553-2.834 2.553zm-2.397 1.883l4.795-.009v14.655h-4.795V7.056zM55.234 22.17c-1.993 0-4.607-.437-6.132-1.277l.934-3.455c1.712.871 3.58 1.37 5.291 1.37 1.307 0 1.962-.406 1.962-1.184 0-.846-.81-1.121-2.46-1.493-3.362-.686-5.51-1.899-5.51-4.732 0-2.708 2.365-4.638 6.382-4.638 1.93 0 4.45.564 5.883 1.245l-.964 3.417c-1.65-.846-3.612-1.307-4.981-1.307-1.183 0-1.774.373-1.774 1.09 0 .778.902 1.09 2.49 1.431 3.393.748 5.448 1.867 5.448 4.763-.001 2.626-2.304 4.77-6.569 4.77zm15.968-3.518c1.588 0 3.27-.564 4.732-1.4l.467 3.704c-1.463.748-3.518 1.184-5.641 1.184-4.887 0-8.094-2.708-8.094-7.565 0-4.731 3.244-7.813 7.844-7.813 4.11 0 6.346 2.46 6.346 6.064 0 .779-.093 1.93-.312 2.553l-9.183.155v.062c.17 1.966 1.476 3.056 3.841 3.056zm1.215-5.819c0-1.743-.717-2.77-2.21-2.77-1.65 0-2.646 1.43-2.802 3.08l5.012-.028v-.282z"/><g opacity=".65"><path d="M85.803 23.207a7.71 7.71 0 100 15.42 7.71 7.71 0 000-15.42zm0 13.087a5.377 5.377 0 110-10.757 5.377 5.377 0 010 10.759v-.002zM102.27 6.76a7.71 7.71 0 100 15.42 7.71 7.71 0 000-15.42zm0 13.088a5.377 5.377 0 115.378-5.377 5.384 5.384 0 01-5.378 5.377z"/><path d="M85.803 6.76a7.714 7.714 0 105.522 2.332h2.188V6.76h-7.71zm5.379 7.71a5.377 5.377 0 11-5.378-5.378 5.384 5.384 0 015.378 5.379z"/></g></g></svg>
